X: 3139
T: HEATHER BELL
Q: "Strathspey."
R: Strathspey.
%R: strathspey
B: James Kerr "Merry Melodies" v.3 p.17 #139
Z: 2016 John Chambers <jc:trillian.mit.edu>
M: C
L: 1/16
K: Am
|:\
(EA3) A3G E3G A4 | (EA3) A3B c3d e4 |\
(EA3) A3G E3G A4 | (Ad3) d3c A4 A4 ::\
e3dc3d ed3-d4 |
e3dc3d e3fg4 |\
[1 e3dc3d ed3-d4 | (ea3) a3g e4 d4 :|\
[2 (ea3) a3g eg3-g4 | (ea3) a3g e4 d4 |]

%%sep 1 1 500
%%sep 1 1 500

